symbols/web/ring_volume/materialsymbolsrounded/ring_volume_wght700_40px.svg

<svg xmlns="http://www.w3.org/2000/svg" height="40" width="40"><path d="M5.625 35 1.75 31.167q-.708-.709-.708-1.917 0-1.208.708-1.958Q5.5 23.417 10 21.5q4.5-1.917 10.042-1.917 5.5 0 10.041 1.896 4.542 1.896 8.209 5.813.708.75.708 1.958t-.708 1.917L34.458 35q-.541.542-1.583.562-1.042.021-1.792-.52l-4.291-3.209q-.417-.333-.625-.791-.209-.459-.209-.959v-5.791q-1.541-.5-2.979-.709-1.437-.208-2.937-.208-1.5 0-2.959.208-1.458.209-3 .709v5.791q0 .5-.208.959-.208.458-.625.791l-4.292 3.209q-.75.541-1.771.541-1.02 0-1.562-.583Zm1.708-3.667 2.834-2.041v-3.5q-1.334.666-2.542 1.562-1.208.896-2.333 1.896Zm25.375-.041 2.084-2.084q-1.125-1.125-2.396-1.979-1.271-.854-2.604-1.562v3.458ZM20.042 11.917q-.834 0-1.396-.542-.563-.542-.563-1.333v-5.25q0-.792.563-1.334.562-.541 1.396-.541.791 0 1.354.541.562.542.562 1.334v5.25q0 .791-.562 1.333-.563.542-1.354.542Zm8.166 3.541q-.583-.541-.583-1.354 0-.812.583-1.396l3.667-3.583q.542-.583 1.333-.583.792 0 1.334.583.583.542.583 1.333 0 .792-.583 1.334l-3.625 3.625q-.542.583-1.334.583-.791 0-1.375-.542Zm-19-.041-3.666-3.625q-.584-.542-.604-1.354-.021-.813.604-1.355.583-.541 1.375-.541.791 0 1.375.583l3.625 3.667q.583.541.583 1.312t-.583 1.313q-.584.583-1.355.583-.77 0-1.354-.583Zm20.584 10.25Zm-19.625.125Z"/></svg>

<svg xmlns="http://www.w3.org/2000/svg" height="40" width="40"><path d="M5.625 35 1.75 31.167Q1.042 30.458 1.042 29.25Q1.042 28.042 1.75 27.292Q5.5 23.417 10 21.5Q14.5 19.583 20.042 19.583Q25.542 19.583 30.083 21.479Q34.625 23.375 38.292 27.292Q39 28.042 39 29.25Q39 30.458 38.292 31.167L34.458 35Q33.917 35.542 32.875 35.562Q31.833 35.583 31.083 35.042L26.792 31.833Q26.375 31.5 26.167 31.042Q25.958 30.583 25.958 30.083V24.292Q24.417 23.792 22.979 23.583Q21.542 23.375 20.042 23.375Q18.542 23.375 17.083 23.583Q15.625 23.792 14.083 24.292V30.083Q14.083 30.583 13.875 31.042Q13.667 31.5 13.25 31.833L8.958 35.042Q8.208 35.583 7.187 35.583Q6.167 35.583 5.625 35ZM7.333 31.333 10.167 29.292V25.792Q8.833 26.458 7.625 27.354Q6.417 28.25 5.292 29.25ZM32.708 31.292 34.792 29.208Q33.667 28.083 32.396 27.229Q31.125 26.375 29.792 25.667V29.125ZM20.042 11.917Q19.208 11.917 18.646 11.375Q18.083 10.833 18.083 10.042V4.792Q18.083 4 18.646 3.458Q19.208 2.917 20.042 2.917Q20.833 2.917 21.396 3.458Q21.958 4 21.958 4.792V10.042Q21.958 10.833 21.396 11.375Q20.833 11.917 20.042 11.917ZM28.208 15.458Q27.625 14.917 27.625 14.104Q27.625 13.292 28.208 12.708L31.875 9.125Q32.417 8.542 33.208 8.542Q34 8.542 34.542 9.125Q35.125 9.667 35.125 10.458Q35.125 11.25 34.542 11.792L30.917 15.417Q30.375 16 29.583 16Q28.792 16 28.208 15.458ZM9.208 15.417 5.542 11.792Q4.958 11.25 4.938 10.438Q4.917 9.625 5.542 9.083Q6.125 8.542 6.917 8.542Q7.708 8.542 8.292 9.125L11.917 12.792Q12.5 13.333 12.5 14.104Q12.5 14.875 11.917 15.417Q11.333 16 10.562 16Q9.792 16 9.208 15.417ZM29.792 25.667Q29.792 25.667 29.792 25.667Q29.792 25.667 29.792 25.667ZM10.167 25.792Q10.167 25.792 10.167 25.792Q10.167 25.792 10.167 25.792Z"/></svg>
